contributed-vectors/gardenscapes_alt.svg

<?xml version="1.0" encoding="UTF-8" standalone="no"?>
<svg
   xmlns:dc="http://purl.org/dc/elements/1.1/"
   xmlns:cc="http://creativecommons.org/ns#"
   xmlns:rdf="http://www.w3.org/1999/02/22-rdf-syntax-ns#"
   xmlns:svg="http://www.w3.org/2000/svg"
   xmlns="http://www.w3.org/2000/svg"
   xmlns:sodipodi="http://sodipodi.sourceforge.net/DTD/sodipodi-0.dtd"
   xmlns:inkscape="http://www.inkscape.org/namespaces/inkscape"
   width="192"
   height="192"
   viewBox="0 0 192 192"
   fill="none"
   version="1.1"
   id="svg24"
   sodipodi:docname="gardenscapes_alt.svg"
   inkscape:version="0.92.4 (5da689c313, 2019-01-14)">
  <metadata
     id="metadata30">
    <rdf:RDF>
      <cc:Work
         rdf:about="">
        <dc:format>image/svg+xml</dc:format>
        <dc:type
           rdf:resource="http://purl.org/dc/dcmitype/StillImage" />
        <dc:title />
      </cc:Work>
    </rdf:RDF>
  </metadata>
  <defs
     id="defs28" />
  <sodipodi:namedview
     pagecolor="#ffffff"
     bordercolor="#666666"
     borderopacity="1"
     objecttolerance="10"
     gridtolerance="10"
     guidetolerance="10"
     inkscape:pageopacity="0"
     inkscape:pageshadow="2"
     inkscape:window-width="1920"
     inkscape:window-height="1017"
     id="namedview26"
     showgrid="false"
     inkscape:zoom="1.7383042"
     inkscape:cx="-20.970022"
     inkscape:cy="91.921682"
     inkscape:window-x="-8"
     inkscape:window-y="-8"
     inkscape:window-maximized="1"
     inkscape:current-layer="svg24" />
  <path
     fill-rule="evenodd"
     clip-rule="evenodd"
     d="M20 161.997C20 167.522 24.477 172 30.0025 172H161.997C167.522 172 172 167.523 172 161.997V30.0025C172 24.4783 167.523 20 161.997 20H30.0025C24.4783 20 20 24.477 20 30.0025V161.997Z"
     fill="#9ABEFF"
     id="path2"
     style="fill:#98dc9a" />
  <rect
     x="69.243202"
     y="61.99234"
     width="55.135101"
     height="68.007553"
     rx="8"
     id="rect6"
     style="fill:#ffd6d4" />
  <path
     fill-rule="evenodd"
     clip-rule="evenodd"
     d="M96.0502 93.5714H108.923C108.956 93.3062 108.973 93.036 108.973 92.7618C108.973 89.1851 106.069 86.2856 102.486 86.2856C98.9041 86.2856 96 89.1851 96 92.7618C96 93.036 96.0171 93.3062 96.0502 93.5714Z"
     fill="white"
     id="path8" />
  <path
     fill-rule="evenodd"
     clip-rule="evenodd"
     d="M71.726 93.5714H84.5986C84.6317 93.3062 84.6488 93.036 84.6488 92.7618C84.6488 89.1851 81.7447 86.2856 78.1623 86.2856C74.5799 86.2856 71.6758 89.1851 71.6758 92.7618C71.6758 93.036 71.6928 93.3062 71.726 93.5714Z"
     fill="white"
     id="path10" />
  <path
     fill-rule="evenodd"
     clip-rule="evenodd"
     d="M97.6556 93.1727H106.37C106.393 92.9809 106.404 92.7856 106.404 92.5873C106.404 90.0012 104.438 87.9048 102.013 87.9048C99.5876 87.9048 97.6216 90.0012 97.6216 92.5873C97.6216 92.7856 97.6331 92.9809 97.6556 93.1727Z"
     fill="#56595B"
     id="path12" />
  <path
     fill-rule="evenodd"
     clip-rule="evenodd"
     d="M73.3313 93.5716H82.0461C82.0685 93.3798 82.08 93.1845 82.08 92.9863C82.08 90.4002 80.114 88.3037 77.6887 88.3037C75.2634 88.3037 73.2974 90.4002 73.2974 92.9863C73.2974 93.1845 73.3089 93.3798 73.3313 93.5716Z"
     fill="#56595B"
     id="path14" />
  <path
     d="M100.054 120.286C100.054 114.921 95.698 110.571 90.3245 110.571C84.9509 110.571 80.5947 114.921 80.5947 120.286"
     stroke="#8E6F60"
     stroke-width="5"
     stroke-linecap="round"
     id="path16" />
  <path
     d="m 118.297,83.8571 c -1.119,0 -2.027,0.9076 -2.027,2.0271 v 13.7586 c 0,1.5652 -1.273,2.8332 -2.838,2.8332 -1.567,0 -2.837,-1.271 -2.837,-2.8332 V 86.8571 c 0,-7.444291 -0.0507,-14.781236 -0.0507,-19.881406 0,-5.100171 4.55146,-4.975694 4.55146,-4.975694 h 2.79727 c 4.477,0 8.107,3.6215 8.107,8.0922 v 5.6727 c 0,0.0854 -0.001,0.1704 -0.004,0.2551 0.003,0.05 0.004,35.761 0.004,35.761 0,1.568 -1.274,2.838 -2.838,2.838 -1.567,0 -2.838,-1.269 -2.838,-2.838 V 85.8842 c 0,-1.1195 -0.907,-2.0271 -2.027,-2.0271 z"
     id="path18"
     inkscape:connector-curvature="0"
     style="clip-rule:evenodd;fill:#8e6f60;fill-rule:evenodd"
     sodipodi:nodetypes="sssssszcsssccssss" />
  <path
     d="m 97.3512,101.667 c 5.5228,0 9.9998,1.88827 9.9998,7.41127 v 4.00163 c 0,1.47 -1.191,2.661 -2.661,2.661 -1.47,0 -2.661,-1.191 -2.661,-2.661 v -1.00863 c 0,-4.419 -3.5816,-5.41127 -7.9999,-5.41127 h -8.4026 c -4.4183,0 -8,0.99227 -8,5.41127 v 1.09963 c 0,1.42 -1.1507,2.57 -2.5701,2.57 -1.4194,0 -2.5701,-1.15 -2.5701,-2.57 v -4.09263 c 0,-5.523 4.4772,-7.41127 10,-7.41127 z"
     id="path20"
     inkscape:connector-curvature="0"
     style="clip-rule:evenodd;fill:#8e6f60;fill-rule:evenodd"
     sodipodi:nodetypes="sssssssssssssss" />
  <path
     opacity="0.345382"
     d="M89.3999 114.95C90.6747 114.95 91.9115 115.094 91.9115 115.094"
     stroke="#8E6F60"
     stroke-width="3"
     stroke-linecap="round"
     id="path22" />
</svg>

<svg xmlns="http://www.w3.org/2000/svg" width="192" height="192" fill="none"><path fill="#9ABEFF" fill-rule="evenodd" d="M20 161.997C20 167.522 24.477 172 30.003 172h131.994c5.525 0 10.003-4.477 10.003-10.003V30.002C172 24.478 167.523 20 161.997 20H30.002C24.478 20 20 24.477 20 30.003v131.994Z" clip-rule="evenodd" style="fill:#98dc9a"/><rect width="55.135" height="68.008" x="69.243" y="61.992" rx="8" style="fill:#ffd6d4"/><path fill="#fff" fill-rule="evenodd" d="M96.05 93.571h12.873c.033-.265.05-.535.05-.81 0-3.576-2.904-6.475-6.487-6.475-3.582 0-6.486 2.9-6.486 6.476 0 .274.017.544.05.81ZM71.726 93.571h12.873c.033-.265.05-.535.05-.81 0-3.576-2.904-6.475-6.487-6.475-3.582 0-6.486 2.9-6.486 6.476 0 .274.017.544.05.81Z" clip-rule="evenodd"/><path fill="#56595B" fill-rule="evenodd" d="M97.656 93.173h8.714c.023-.192.034-.387.034-.586 0-2.586-1.966-4.682-4.391-4.682S97.622 90 97.622 92.587c0 .199.011.394.034.586ZM73.331 93.572h8.715c.022-.192.034-.388.034-.586 0-2.586-1.966-4.682-4.391-4.682-2.426 0-4.392 2.096-4.392 4.682 0 .198.012.394.034.586Z" clip-rule="evenodd"/><path stroke="#8E6F60" stroke-linecap="round" stroke-width="5" d="M100.054 120.286c0-5.365-4.356-9.715-9.73-9.715-5.373 0-9.73 4.35-9.73 9.715"/><path d="M118.297 83.857a2.027 2.027 0 0 0-2.027 2.027v13.759a2.837 2.837 0 0 1-5.675 0V86.857c0-7.444-.05-14.781-.05-19.881s4.55-4.976 4.55-4.976h2.798c4.477 0 8.107 3.622 8.107 8.092v5.673c0 .085-.001.17-.004.255.003.05.004 35.761.004 35.761a2.837 2.837 0 1 1-5.676 0V85.884c0-1.12-.907-2.027-2.027-2.027zM97.351 101.667c5.523 0 10 1.888 10 7.411v4.002a2.66 2.66 0 1 1-5.322 0v-1.009c0-4.419-3.582-5.411-8-5.411h-8.402c-4.419 0-8 .992-8 5.411v1.1a2.57 2.57 0 1 1-5.14 0v-4.093c0-5.523 4.477-7.411 10-7.411z" style="clip-rule:evenodd;fill:#8e6f60;fill-rule:evenodd"/><path stroke="#8E6F60" stroke-linecap="round" stroke-width="3" d="M89.4 114.95c1.275 0 2.511.144 2.511.144" opacity=".345"/></svg>
